!! 00000] TT[00
!! NN
!!!OTL: Nongfu ge
!!!ARE: Jilin, Yanbian
!! Ethnic Group: Chaoxian
!! III, 168
!!!SCT: C0287
!!!YEM: Copyright 1995, estate of Helmut Schaffrath.
**kern
*ICvox
*Ivox
*M6/8
*k[b-e-]
*B-:
{8ddd
8ddd
8ddd
8ddd
8ddd
8ddd
=1
4ccc
8ccc
4aa
8r}
=2
{8ddd
8ddd
8ddd
8.bb-
16ddd
16bb-
16aa
=3
4gg
8gg
4.dd}
=4
{8gg
4gg
8.bb-
16gg
8bb-
=5
8gg
4gg
4dd
8dd}
=6
{8.ccc
16ddd
8ddd
8.bb-
16ddd
16bb-
16aa
=7
4gg
8dd
4gg
8aa}
=8
{4.ccc
4.ddd
=9
[4.ggg
8.ggg]
16ddd
16bb-
16aa
=10
[4.gg
4gg]}
{16bb-
16aa
=11
8gg
4dd
4.gg}
==
!!!AGN: Zage. Jaodong qingjing
!! trotzdem hat es den Charakter der Tanzform.
!!    Eine Verzierung.
!!!ONB: ESAC (Essen Associative Code) Database: CHINA
!!!AMT: compound duple
!!!AIN: vox
!!!EED: Helmut Schaffrath
!!!EEV: 1.0
*-
